X: 9273
T: Dance Boatman Dance
R: reel
M: 4/4
K: Amajor
|:aAaA aAaA|bAaA aAaA|bAaA efec|BAcB A4:|
|:f4 e3e|f2d2 e4|defa efec|BAcB A4:|
|:A2A2A2 B/c/d|ecAc e2cB|A3B cBA2|F3F EFAB|
A2A2A2 B/c/d|ecAc e4|defa efec|BAcB A4:|

